icons/circle/48/preferences-web-browser-cookies.svg

<svg xmlns="http://www.w3.org/2000/svg" viewBox="0 0 48 48">
 <defs>
  <linearGradient id="linearGradient3764" x1="1" x2="47" gradientUnits="userSpaceOnUse" gradientTransform="matrix(0,-1,1,0,-1.5e-6,47.999998)">
   <stop style="stop-color:#e4e4e4;stop-opacity:1"/>
   <stop offset="1" style="stop-color:#eee;stop-opacity:1"/>
  </linearGradient>
 </defs>
 <g>
  <path d="m 36.31 5 c 5.859 4.062 9.688 10.831 9.688 18.5 c 0 12.426 -10.07 22.5 -22.5 22.5 c -7.669 0 -14.438 -3.828 -18.5 -9.688 c 1.037 1.822 2.306 3.499 3.781 4.969 c 4.085 3.712 9.514 5.969 15.469 5.969 c 12.703 0 23 -10.298 23 -23 c 0 -5.954 -2.256 -11.384 -5.969 -15.469 c -1.469 -1.475 -3.147 -2.744 -4.969 -3.781 z m 4.969 3.781 c 3.854 4.113 6.219 9.637 6.219 15.719 c 0 12.703 -10.297 23 -23 23 c -6.081 0 -11.606 -2.364 -15.719 -6.219 c 4.16 4.144 9.883 6.719 16.219 6.719 c 12.703 0 23 -10.298 23 -23 c 0 -6.335 -2.575 -12.06 -6.719 -16.219 z" style="opacity:0.05"/>
  <path d="m 41.28 8.781 c 3.712 4.085 5.969 9.514 5.969 15.469 c 0 12.703 -10.297 23 -23 23 c -5.954 0 -11.384 -2.256 -15.469 -5.969 c 4.113 3.854 9.637 6.219 15.719 6.219 c 12.703 0 23 -10.298 23 -23 c 0 -6.081 -2.364 -11.606 -6.219 -15.719 z" style="opacity:0.1"/>
  <path d="m 31.25 2.375 c 8.615 3.154 14.75 11.417 14.75 21.13 c 0 12.426 -10.07 22.5 -22.5 22.5 c -9.708 0 -17.971 -6.135 -21.12 -14.75 a 23 23 0 0 0 44.875 -7 a 23 23 0 0 0 -16 -21.875 z" style="opacity:0.2"/>
 </g>
 <g>
  <path d="m 24 1 c 12.703 0 23 10.297 23 23 c 0 12.703 -10.297 23 -23 23 -12.703 0 -23 -10.297 -23 -23 0 -12.703 10.297 -23 23 -23 z" style="fill:url(#linearGradient3764);fill-opacity:1"/>
 </g>
 <g>
  <g>
   <g transform="translate(1,1)">
    <g style="opacity:0.1">
     <!-- color: #eeeeee -->
     <g>
      <path d="m 39 24 c 0 8.285 -6.715 15 -15 15 c -8.285 0 -15 -6.715 -15 -15 c 0 -8.285 6.715 -15 15 -15 c 8.285 0 15 6.715 15 15 m 0 0" style="fill:#000;fill-opacity:0.886;stroke:none;fill-rule:nonzero"/>
     </g>
    </g>
   </g>
  </g>
 </g>
 <g>
  <g>
   <!-- color: #eeeeee -->
   <g>
    <path d="M 39,24 C 39,32.285 32.285,39 24,39 15.715,39 9,32.285 9,24 9,15.715 15.715,9 24,9 c 8.285,0 15,6.715 15,15 m 0,0" style="fill:#d0a15b;fill-opacity:1;stroke:none;fill-rule:nonzero"/>
    <path d="m 15.918 17.09 0 2 4 -1 m -4 -1" style="fill:#865b21;fill-opacity:1;stroke:none;fill-rule:nonzero"/>
    <path d="m 25.914 12.09 0 2 3 -1 m -3 -1" style="fill:#865b21;fill-opacity:1;stroke:none;fill-rule:nonzero"/>
    <path d="m 23.914 18.09 1 3 1.996 -2 m -2.996 -1" style="fill:#865b21;fill-opacity:1;stroke:none;fill-rule:nonzero"/>
    <path d="m 32.914 17.09 -1 4 3 -1 m -2 -3" style="fill:#865b21;fill-opacity:1;stroke:none;fill-rule:nonzero"/>
    <path d="m 16.914 22.09 0 4 2 -3 m -2 -1" style="fill:#865b21;fill-opacity:1;stroke:none;fill-rule:nonzero"/>
    <path d="m 21.914 28.09 0 1.996 3 -1 -2 -3 m -1 2" style="fill:#865b21;fill-opacity:1;stroke:none;fill-rule:nonzero"/>
    <path d="m 19.918 13.09 0 1 1 0.996 m -1 -1.996" style="fill:#865b21;fill-opacity:1;stroke:none;fill-rule:nonzero"/>
    <path d="m 29.918 24.08 -3 1 2 2 1 -2 0 -1 m 0.004 0" style="fill:#865b21;fill-opacity:1;stroke:none;fill-rule:nonzero"/>
    <path d="m 33.918 24.08 -2 5 1 -1.988 3 -1 m -2 -2" style="fill:#865b21;fill-opacity:1;stroke:none;fill-rule:nonzero"/>
    <path d="m 28.918 31.09 -2 1.996 3 2 2 -2 m -3 -1.996" style="fill:#865b21;fill-opacity:1;stroke:none;fill-rule:nonzero"/>
    <path d="m 20.918 33.08 -2 0 3 2 1 -1 m -2 -1" style="fill:#865b21;fill-opacity:1;stroke:none;fill-rule:nonzero"/>
    <path d="m 14.914 29.08 4 -0.988 0 1.988 -3 0 m -1 -1" style="fill:#865b21;fill-opacity:1;stroke:none;fill-rule:nonzero"/>
    <path d="m 11.918 22.09 0.996 4 0 -4 m -0.996 0" style="fill:#865b21;fill-opacity:1;stroke:none;fill-rule:nonzero"/>
   </g>
  </g>
 </g>
 <g>
  <path d="m 40.03 7.531 c 3.712 4.084 5.969 9.514 5.969 15.469 0 12.703 -10.297 23 -23 23 c -5.954 0 -11.384 -2.256 -15.469 -5.969 4.178 4.291 10.01 6.969 16.469 6.969 c 12.703 0 23 -10.298 23 -23 0 -6.462 -2.677 -12.291 -6.969 -16.469 z" style="opacity:0.1"/>
 </g>
</svg>

<svg xmlns="http://www.w3.org/2000/svg" viewBox="0 0 48 48">
  <defs>
    <linearGradient id="a" x1="1" x2="47" gradientUnits="userSpaceOnUse" gradientTransform="rotate(-90 24 24)">
      <stop stop-color="#e4e4e4"/>
      <stop offset="1" stop-color="#eee"/>
    </linearGradient>
  </defs>
  <path d="M36.31 5c5.859 4.062 9.688 10.831 9.688 18.5 0 12.426-10.07 22.5-22.5 22.5-7.669 0-14.438-3.828-18.5-9.688a23.24 23.24 0 0 0 3.781 4.969 22.923 22.923 0 0 0 15.469 5.969c12.703 0 23-10.298 23-23a22.92 22.92 0 0 0-5.969-15.469A23.216 23.216 0 0 0 36.31 5zm4.969 3.781A22.911 22.911 0 0 1 47.498 24.5c0 12.703-10.297 23-23 23a22.909 22.909 0 0 1-15.719-6.219C12.939 45.425 18.662 48 24.998 48c12.703 0 23-10.298 23-23 0-6.335-2.575-12.06-6.719-16.219z" opacity=".05"/>
  <path d="M41.28 8.781a22.923 22.923 0 0 1 5.969 15.469c0 12.703-10.297 23-23 23A22.92 22.92 0 0 1 8.78 41.281 22.911 22.911 0 0 0 24.499 47.5c12.703 0 23-10.298 23-23A22.909 22.909 0 0 0 41.28 8.781z" opacity=".1"/>
  <path d="M31.25 2.375C39.865 5.529 46 13.792 46 23.505c0 12.426-10.07 22.5-22.5 22.5-9.708 0-17.971-6.135-21.12-14.75a23 23 0 0 0 44.875-7 23 23 0 0 0-16-21.875z" opacity=".2"/>
  <path d="M24 1c12.703 0 23 10.297 23 23S36.703 47 24 47 1 36.703 1 24 11.297 1 24 1z" fill="url(#a)"/>
  <path d="M40 25c0 8.285-6.715 15-15 15s-15-6.715-15-15 6.715-15 15-15 15 6.715 15 15m0 0" fill-opacity=".886" opacity=".1"/>
  <g>
    <path d="M39 24c0 8.285-6.715 15-15 15S9 32.285 9 24 15.715 9 24 9s15 6.715 15 15m0 0" fill="#d0a15b"/>
    <path d="M15.918 17.09v2l4-1m-4-1M25.914 12.09v2l3-1m-3-1M23.914 18.09l1 3 1.996-2m-2.996-1M32.914 17.09l-1 4 3-1m-2-3M16.914 22.09v4l2-3m-2-1M21.914 28.09v1.996l3-1-2-3m-1 2M19.918 13.09v1l1 .996m-1-1.996M29.918 24.08l-3 1 2 2 1-2v-1m.004 0M33.918 24.08l-2 5 1-1.988 3-1m-2-2M28.918 31.09l-2 1.996 3 2 2-2m-3-1.996M20.918 33.08h-2l3 2 1-1m-2-1M14.914 29.08l4-.988v1.988h-3m-1-1M11.918 22.09l.996 4v-4m-.996 0" fill="#865b21"/>
  </g>
  <g>
    <path d="M40.03 7.531A22.922 22.922 0 0 1 45.999 23c0 12.703-10.297 23-23 23A22.92 22.92 0 0 1 7.53 40.031C11.708 44.322 17.54 47 23.999 47c12.703 0 23-10.298 23-23 0-6.462-2.677-12.291-6.969-16.469z" opacity=".1"/>
  </g>
</svg>
